_includes/icons/ios-stack.svg

<svg fill="#666" height="50" viewBox="0 0 50 50" width="50" xmlns="http://www.w3.org/2000/svg"><path d="m7.6875 0c-.90625 0-1.605469.613281-1.8125 1.46875h-.03125l-.03125.125-5.59375 17.53125c-.015625.035156-.046875.058594-.0625.09375v.0625c-.046875.089844-.078125.183594-.09375.28125-.0039062.011719-.0273437.019531-.03125.03125-.0039062.050781-.0039062.105469 0 .15625-.0117187.082031-.03125.164063-.03125.25v8c0 .359375.109375.707031.28125 1-.171875.292969-.28125.640625-.28125 1v8c0 .359375.109375.707031.28125 1-.171875.292969-.28125.640625-.28125 1v8c0 1.09375.90625 2 2 2h46c1.09375 0 2-.90625 2-2v-8c0-.359375-.109375-.707031-.28125-1 .171875-.292969.28125-.640625.28125-1v-8c0-.359375-.109375-.707031-.28125-1 .171875-.292969.28125-.640625.28125-1v-8c0-.277344-.082031-.539062-.1875-.78125 0-.011719 0-.019531 0-.03125l-5.625-17.59375-.03125-.125h-.03125c-.207031-.855469-.90625-1.46875-1.8125-1.46875zm.09375 2h34.46875v.0625l5.09375 15.9375h-44.71875l5.125-15.9375c.011719-.019531.023438-.042969.03125-.0625zm-5.78125 18h46v8h-46v-7.9375c0-.019531 0-.042969 0-.0625zm41 2c-1.105469 0-2 .894531-2 2s.894531 2 2 2 2-.894531 2-2-.894531-2-2-2zm-41 8h46v8h-46zm41 2c-1.105469 0-2 .894531-2 2s.894531 2 2 2 2-.894531 2-2-.894531-2-2-2zm-41 8h46v8h-46zm41 2c-1.105469 0-2 .894531-2 2s.894531 2 2 2 2-.894531 2-2-.894531-2-2-2z"/></svg>

<svg xmlns="http://www.w3.org/2000/svg" viewBox="0 0 50 50" width="50" height="50" fill="#666"><path d="M 7.6875 0 C 6.78125 0 6.082031 0.613281 5.875 1.46875 L 5.84375 1.46875 L 5.8125 1.59375 L 0.21875 19.125 C 0.203125 19.160156 0.171875 19.183594 0.15625 19.21875 L 0.15625 19.28125 C 0.109375 19.371094 0.078125 19.464844 0.0625 19.5625 C 0.0585938 19.574219 0.0351563 19.582031 0.03125 19.59375 C 0.0273438 19.644531 0.0273438 19.699219 0.03125 19.75 C 0.0195313 19.832031 0 19.914063 0 20 L 0 28 C 0 28.359375 0.109375 28.707031 0.28125 29 C 0.109375 29.292969 0 29.640625 0 30 L 0 38 C 0 38.359375 0.109375 38.707031 0.28125 39 C 0.109375 39.292969 0 39.640625 0 40 L 0 48 C 0 49.09375 0.90625 50 2 50 L 48 50 C 49.09375 50 50 49.09375 50 48 L 50 40 C 50 39.640625 49.890625 39.292969 49.71875 39 C 49.890625 38.707031 50 38.359375 50 38 L 50 30 C 50 29.640625 49.890625 29.292969 49.71875 29 C 49.890625 28.707031 50 28.359375 50 28 L 50 20 C 50 19.722656 49.917969 19.460938 49.8125 19.21875 C 49.8125 19.207031 49.8125 19.199219 49.8125 19.1875 L 44.1875 1.59375 L 44.15625 1.46875 L 44.125 1.46875 C 43.917969 0.613281 43.21875 0 42.3125 0 Z M 7.78125 2 L 42.25 2 C 42.25 2.019531 42.25 2.042969 42.25 2.0625 L 47.34375 18 L 2.625 18 L 7.75 2.0625 C 7.761719 2.042969 7.773438 2.019531 7.78125 2 Z M 2 20 L 48 20 L 48 28 L 2 28 L 2 20.0625 C 2 20.042969 2 20.019531 2 20 Z M 43 22 C 41.894531 22 41 22.894531 41 24 C 41 25.105469 41.894531 26 43 26 C 44.105469 26 45 25.105469 45 24 C 45 22.894531 44.105469 22 43 22 Z M 2 30 L 48 30 L 48 38 L 2 38 Z M 43 32 C 41.894531 32 41 32.894531 41 34 C 41 35.105469 41.894531 36 43 36 C 44.105469 36 45 35.105469 45 34 C 45 32.894531 44.105469 32 43 32 Z M 2 40 L 48 40 L 48 48 L 2 48 Z M 43 42 C 41.894531 42 41 42.894531 41 44 C 41 45.105469 41.894531 46 43 46 C 44.105469 46 45 45.105469 45 44 C 45 42.894531 44.105469 42 43 42 Z"/></svg>
